X: 031308
T: Cordal
S: "Johnny O'Leary of Sliabh Luachra" (#333)
Z: B.Black
L: 1/8
M: 6/8
R: jig
K: D
BAF E2E|FAF DFA|BAF EFA|B/c/BA Bcd|
BAF EDE|FAF DFA|dzf edc|B/c/BA Bcd :|
dzd fed|cAc ecA|d/c/de fed|f/g/fe fga|
dcd fed|cAc ecA|d/e/fd cec|B/c/BA Bcd :|
"final" d/e/fd cdc|BAF D3||
